X:1
T:STENKA RASIN
M:3/4
Q:1/4=120
K:G
D5D|G3FA3/2G/2|G2F2D3/2D/2|c3AdA|B4GG|e3dce|
d2G2DD|B3AcF|G4DD|G3FA3/2G/2|G2F2DD|c3AdA|
B4GG|e3dce|d2G2DD|c3AcF|G7/2||
